X: 37721
T: Soldier's Cloak, The
R: jig
M: 6/8
K: Dmajor
B|ABA AFA|d2 e f2 d|ecA AGF|G3 E2 G|
ABA AFA|d2 e f2 d|ecA ABc|1 d3 d c:|2 d3 d2 g||
fef def|g3 faf|ecA AGF|G3 E2 G|
ABA AFA|d2 e f2 d|ecA ABc|1 d3 d g:|2 d3 d2||

